X:325
T:Newcastle Association March. RH.325
R:march
S:Rev.R.Harrison’s MS,c1815,Cumbria
O:England
A:Temple Sowerby,Cumbria
Z:vmp.Simon Wilson. Review PJH, 2008.
M:C|
L:1/8
Q:1/2=70
K:D
a/b/4c’/4|d’4 a3f|d>cd>e f2f>d|\
c>Ad>A e>Af>e|e2A>A A2 f>g|!
a3f dddd|e3c A2A2|\
((3Bcd) ((3fed) c2ed/c/|A2A>A A2:|!
|:c>d|e2A>A f2d>d|e2A>A f2d>d|\
g>gf>e d2c2|B2B>B B>AB>c|!
d2A>A e>da>f|{e}d2d>B A2g2|\
fe/f/ g>e d>fe>c|d2d>d d2:|

